symbols/be/PVA-{110}.svg

<?xml version="1.0" encoding="UTF-8" standalone="no"?>
<!-- Initially created with Inkscape, optimized by hand -->

<svg
   version="1.1"
   width="20"
   height="17.320995"
   id="svg1"
   xmlns="http://www.w3.org/2000/svg"
   xmlns:svg="http://www.w3.org/2000/svg">
  <defs
     id="defs1" />
  <path
     id="Fond"
     d="M 20,-1.2580566e-6 H 3.1098633e-6 L 10.000003,17.320999 Z"
     fill="#edd827"
     style="stroke-width:0.1" />
  <path
     d="m 9.5554061,9.2268437 v -6.389353 c 0,-0.106667 -0.032,-0.192001 -0.106667,-0.266668 -0.064,-0.07467 -0.362668,-0.149334 -0.501335,-0.01067 l -1.429338,1.429337 c -0.149334,0.149334 -0.096,0.426668 0.01067,0.533335 0.096,0.106667 0.352001,0.128001 0.490668,-0.01067 l 0.821336,-0.832003 v 5.557351 c 0,0.192001 0.170667,0.352001 0.362668,0.352001 0.192,0 0.352001,-0.16 0.352001,-0.362668 z m 3.0186659,0 v -6.389353 c 0,-0.106667 -0.032,-0.192001 -0.106667,-0.266668 -0.064,-0.07467 -0.362668,-0.149334 -0.501335,-0.01067 l -1.429338,1.429337 c -0.149334,0.149334 -0.096,0.426668 0.01067,0.533335 0.096,0.106667 0.352001,0.128001 0.490668,-0.01067 l 0.821336,-0.832003 v 5.557351 c 0,0.192001 0.170667,0.352001 0.362668,0.352001 0.192,0 0.352001,-0.16 0.352001,-0.362668 z"
     id="text1"
     style="font-size:10.6667px;font-family:Isonorm;-inkscape-font-specification:'Isonorm, Normal';fill-rule:evenodd;stroke-width:0.08"
     aria-label="11" />
</svg>

<?xml version="1.0" encoding="UTF-8"?>
<svg xmlns="http://www.w3.org/2000/svg" xmlns:xlink="http://www.w3.org/1999/xlink" width="20" height="17.320995" viewBox="0 0 20 17.320995">
<path fill-rule="nonzero" fill="rgb(92.941176%, 84.705882%, 15.294118%)" fill-opacity="1" d="M 20 0 L 0 0 L 10 17.320312 Z M 20 0 "/>
<path fill-rule="evenodd" fill="rgb(0%, 0%, 0%)" fill-opacity="1" d="M 9.554688 9.226562 L 9.554688 2.835938 C 9.554688 2.730469 9.523438 2.644531 9.449219 2.570312 C 9.382812 2.496094 9.085938 2.421875 8.949219 2.558594 L 7.519531 3.988281 C 7.367188 4.140625 7.421875 4.417969 7.527344 4.523438 C 7.625 4.628906 7.878906 4.652344 8.019531 4.511719 L 8.839844 3.679688 L 8.839844 9.238281 C 8.839844 9.429688 9.011719 9.589844 9.203125 9.589844 C 9.394531 9.589844 9.554688 9.429688 9.554688 9.226562 Z M 12.574219 9.226562 L 12.574219 2.835938 C 12.574219 2.730469 12.542969 2.644531 12.46875 2.570312 C 12.402344 2.496094 12.105469 2.421875 11.964844 2.558594 L 10.535156 3.988281 C 10.386719 4.140625 10.441406 4.417969 10.546875 4.523438 C 10.644531 4.628906 10.898438 4.652344 11.039062 4.511719 L 11.859375 3.679688 L 11.859375 9.238281 C 11.859375 9.429688 12.03125 9.589844 12.222656 9.589844 C 12.414062 9.589844 12.574219 9.429688 12.574219 9.226562 Z M 12.574219 9.226562 "/>
</svg>
